resources/icons/pair.svg

<svg viewBox="0 0 20 20" xmlns="http://www.w3.org/2000/svg">
<path d="M10.3369 1.96027C10.2771 1.65138 10.097 1.37892 9.83625 1.2029C9.57549 1.02688 9.25544 0.961737 8.94661 1.02183L1.95971 2.37788C1.31788 2.50503 0.898839 3.12614 1.02124 3.76886L3.05617 14.2489C3.18099 14.8919 3.80337 15.312 4.44641 15.1873L5.10143 15.0603" stroke="currentColor" stroke-width="2" stroke-linecap="round" stroke-linejoin="round" fill="none"/>
<path fill-rule="evenodd" clip-rule="evenodd" d="M9.54198 5.11221C9.62882 4.68241 10.0476 4.40438 10.4774 4.49121L18.2215 6.05577C18.6513 6.14261 18.9293 6.56142 18.8425 6.99123L16.5733 18.2222C16.4864 18.652 16.0676 18.93 15.6378 18.8432L7.89378 17.2787C7.46397 17.1918 7.18595 16.773 7.27279 16.3432L9.54198 5.11221Z" stroke="currentColor" stroke-width="2" stroke-linecap="round" stroke-linejoin="round" fill="none"/>
</svg>

<svg viewBox="0 0 20 20" xmlns="http://www.w3.org/2000/svg"><path d="M10.337 1.96a1.186 1.186 0 0 0-1.39-.938L1.96 2.378a1.19 1.19 0 0 0-.939 1.39l2.035 10.48a1.186 1.186 0 0 0 1.39.94l.655-.128" stroke="currentColor" stroke-width="2" stroke-linecap="round" stroke-linejoin="round" fill="none"/><path clip-rule="evenodd" d="M9.542 5.112a.794.794 0 0 1 .935-.62l7.744 1.564c.43.087.708.505.622.935l-2.27 11.231a.794.794 0 0 1-.935.621L7.894 17.28a.794.794 0 0 1-.621-.936l2.269-11.23Z" stroke="currentColor" stroke-width="2" stroke-linecap="round" stroke-linejoin="round" fill="none"/></svg>
